z_dist/img/icons/crypto/binance-coin-BNB.svg

<svg width="64" height="64" viewBox="0 0 64 64" fill="none" xmlns="http://www.w3.org/2000/svg">
<g clip-path="url(#clip0_233_434)">
<rect width="64" height="64" rx="4" fill="white"/>
<path d="M22.678 28.1699L31.9999 18.848L41.3263 28.1739L46.7502 22.75L31.9999 8L17.2544 22.7455L22.6782 28.1695L22.678 28.1699ZM8 31.9999L13.4242 26.575L18.848 31.9988L13.4238 37.4229L8 31.9999ZM22.678 35.8305L31.9999 45.1519L41.3261 35.8261L46.7529 41.2472L46.7502 41.25L31.9999 55.9998L17.2544 41.2543L17.2467 41.2466L22.6785 35.8299L22.678 35.8305ZM45.1519 32.0022L50.576 26.578L55.9998 32.0018L50.5758 37.426L45.1519 32.0022Z" fill="#F3BA2F"/>
<path d="M37.5011 31.9971H37.5034L31.9999 26.4932L27.932 30.56L27.4647 31.0275L26.5008 31.9916L26.4932 31.9991L26.5008 32.0069L31.9999 37.5069L37.5037 32.0029L37.5064 31.9998L37.5014 31.9971" fill="#F3BA2F"/>
</g>
<defs>
<clipPath id="clip0_233_434">
<rect width="64" height="64" fill="white"/>
</clipPath>
</defs>
</svg>

<svg width="64" height="64" fill="none" xmlns="http://www.w3.org/2000/svg"><g clip-path="url(#clip0_233_434)"><rect width="64" height="64" rx="4" fill="#fff"/><path d="M22.678 28.17L32 18.848l9.326 9.326 5.424-5.424L32 8 17.254 22.745l5.424 5.424zM8 32l5.424-5.425 5.424 5.424-5.424 5.424L8 32zm14.678 3.83L32 45.153l9.326-9.326 5.427 5.421-.003.003L32 56 17.254 41.254l-.007-.007 5.431-5.417zm22.474-3.828l5.424-5.424L56 32.002l-5.424 5.424-5.424-5.424z" fill="#F3BA2F"/><path d="M37.501 31.997h.002L32 26.493l-4.068 4.067-.467.468-.964.964-.008.007.008.008 5.499 5.5 5.504-5.504.002-.003-.005-.003" fill="#F3BA2F"/></g><defs><clipPath id="clip0_233_434"><path fill="#fff" d="M0 0h64v64H0z"/></clipPath></defs></svg>
